src/components/Docs/stories/components/LogoHeader/images/polarisviz-logo.svg

<svg width="415" height="98" viewBox="0 0 415 98" fill="none" xmlns="http://www.w3.org/2000/svg"><path d="M79.624 78h9.99V57.576h7.844c11.1 0 18.426-4.884 18.426-15.614v-1.11c0-10.73-6.956-15.762-18.722-15.762H79.624V78zm9.99-27.676V32.786h7.474c5.698 0 8.954 2.146 8.954 8.14v1.036c0 5.55-3.108 8.362-8.954 8.362h-7.474zm30.413 9.842c0 11.396 8.066 18.574 18.87 18.574 10.656 0 18.87-7.104 18.87-18.722v-2.96c0-11.47-8.14-18.574-18.796-18.574-10.804 0-18.944 7.252-18.944 18.796v2.886zm9.62 0v-3.108c0-7.104 3.552-11.248 9.324-11.248 5.624 0 9.102 4.144 9.102 11.322v3.034c0 7.03-3.404 11.322-9.102 11.322-5.846 0-9.324-4.292-9.324-11.322zM165.68 78h9.546V21.834h-9.546V78zm40.597-4.588V78h9.324V52.396c0-10.064-6.068-13.912-15.17-13.912-8.732 0-15.17 4.44-16.206 11.322l8.88 1.332c.518-2.886 2.96-5.55 6.882-5.55 4.736 0 6.142 2.442 6.142 7.104v2.368h-4.736c-10.73 0-18.426 3.108-18.426 11.988v.37c0 7.844 5.476 11.322 12.21 11.322 5.772 0 8.954-2.294 11.1-5.328zm-8.362-1.406c-3.848 0-5.55-1.85-5.55-5.106v-.296c0-4.218 3.552-5.698 9.324-5.698h4.44v4.218c0 4.366-3.478 6.882-8.214 6.882zM225.077 78h9.472V57.576c0-7.4 4.44-9.842 13.024-9.768V38.78c-7.178-.074-10.73 2.59-13.024 7.622v-7.104h-9.472V78zm33.72-44.252c3.108 0 5.55-2.294 5.55-5.328 0-3.034-2.442-5.328-5.55-5.328-3.108 0-5.55 2.294-5.55 5.328 0 3.034 2.368 5.328 5.55 5.328zM254.061 78h9.472V39.298h-9.472V78zm48.812-11.544c0-7.622-5.328-10.286-14.282-11.988-5.92-1.258-7.992-2.368-7.992-5.032 0-2.516 2.22-4.218 5.994-4.218 3.7 0 6.216 1.998 6.808 5.032l8.658-1.258c-.962-6.142-6.586-10.508-15.392-10.508-7.844 0-14.948 4.07-14.948 11.618 0 7.03 3.922 9.842 13.542 11.914 5.698 1.11 8.362 2.294 8.362 5.328 0 2.96-2.22 4.662-6.438 4.662-4.736 0-7.104-2.738-7.622-6.068l-8.954 1.258c.962 6.586 6.808 11.544 16.502 11.544 9.842 0 15.762-4.44 15.762-12.284zM339.139 78h7.4l12.95-38.702h-6.142l-10.36 32.486-10.656-32.486h-6.364L339.139 78zm31.656-46.398a3.98 3.98 0 003.996-3.996 3.98 3.98 0 00-3.996-3.996c-2.146 0-3.996 1.776-3.996 3.996a3.98 3.98 0 003.996 3.996zM367.835 78h5.994V39.298h-5.994V78zm44.25-5.254h-23.31l23.68-28.638v-4.81h-28.342v5.106h21.534l-23.68 28.564V78h30.118v-5.254z" fill="#fff"/><rect y="52" width="9" height="26" rx="4.5" fill="url(#paint0_linear)"/><rect x="15" y="31" width="9" height="47" rx="4.5" fill="url(#paint1_linear)"/><rect x="30" y="39" width="9" height="39" rx="4.5" fill="url(#paint2_linear)"/><rect x="45" y="25" width="9" height="53" rx="4.5" fill="url(#paint3_linear)"/><defs><linearGradient id="paint0_linear" x1="4.5" y1="52" x2="4.5" y2="78" gradientUnits="userSpaceOnUse"><stop stop-color="#997AFC"/><stop offset="1" stop-color="#7F4AFA"/></linearGradient><linearGradient id="paint1_linear" x1="19.5" y1="31" x2="19.5" y2="78" gradientUnits="userSpaceOnUse"><stop stop-color="#4B92E5"/><stop offset="1" stop-color="#3672BB"/></linearGradient><linearGradient id="paint2_linear" x1="34.5" y1="39" x2="34.5" y2="78" gradientUnits="userSpaceOnUse"><stop stop-color="#DA62C4"/><stop offset="1" stop-color="#B1489E"/></linearGradient><linearGradient id="paint3_linear" x1="49.5" y1="25" x2="49.5" y2="78" gradientUnits="userSpaceOnUse"><stop stop-color="#4C9AAF"/><stop offset="1" stop-color="#33798C"/></linearGradient></defs></svg>

<svg width="415" height="98" viewBox="0 0 415 98" fill="none" xmlns="http://www.w3.org/2000/svg">
<path d="M79.624 78H89.614V57.576H97.458C108.558 57.576 115.884 52.692 115.884 41.962V40.852C115.884 30.122 108.928 25.09 97.162 25.09H79.624V78ZM89.614 50.324V32.786H97.088C102.786 32.786 106.042 34.932 106.042 40.926V41.962C106.042 47.512 102.934 50.324 97.088 50.324H89.614ZM120.027 60.166C120.027 71.562 128.093 78.74 138.897 78.74C149.553 78.74 157.767 71.636 157.767 60.018V57.058C157.767 45.588 149.627 38.484 138.971 38.484C128.167 38.484 120.027 45.736 120.027 57.28V60.166ZM129.647 60.166V57.058C129.647 49.954 133.199 45.81 138.971 45.81C144.595 45.81 148.073 49.954 148.073 57.132V60.166C148.073 67.196 144.669 71.488 138.971 71.488C133.125 71.488 129.647 67.196 129.647 60.166ZM165.68 78H175.226V21.834H165.68V78ZM206.277 73.412V78H215.601V52.396C215.601 42.332 209.533 38.484 200.431 38.484C191.699 38.484 185.261 42.924 184.225 49.806L193.105 51.138C193.623 48.252 196.065 45.588 199.987 45.588C204.723 45.588 206.129 48.03 206.129 52.692V55.06H201.393C190.663 55.06 182.967 58.168 182.967 67.048V67.418C182.967 75.262 188.443 78.74 195.177 78.74C200.949 78.74 204.131 76.446 206.277 73.412ZM197.915 72.006C194.067 72.006 192.365 70.156 192.365 66.9V66.604C192.365 62.386 195.917 60.906 201.689 60.906H206.129V65.124C206.129 69.49 202.651 72.006 197.915 72.006ZM225.077 78H234.549V57.576C234.549 50.176 238.989 47.734 247.573 47.808V38.78C240.395 38.706 236.843 41.37 234.549 46.402V39.298H225.077V78ZM258.797 33.748C261.905 33.748 264.347 31.454 264.347 28.42C264.347 25.386 261.905 23.092 258.797 23.092C255.689 23.092 253.247 25.386 253.247 28.42C253.247 31.454 255.615 33.748 258.797 33.748ZM254.061 78H263.533V39.298H254.061V78ZM302.873 66.456C302.873 58.834 297.545 56.17 288.591 54.468C282.671 53.21 280.599 52.1 280.599 49.436C280.599 46.92 282.819 45.218 286.593 45.218C290.293 45.218 292.809 47.216 293.401 50.25L302.059 48.992C301.097 42.85 295.473 38.484 286.667 38.484C278.823 38.484 271.719 42.554 271.719 50.102C271.719 57.132 275.641 59.944 285.261 62.016C290.959 63.126 293.623 64.31 293.623 67.344C293.623 70.304 291.403 72.006 287.185 72.006C282.449 72.006 280.081 69.268 279.563 65.938L270.609 67.196C271.571 73.782 277.417 78.74 287.111 78.74C296.953 78.74 302.873 74.3 302.873 66.456ZM339.139 78H346.539L359.489 39.298H353.347L342.987 71.784L332.331 39.298H325.967L339.139 78ZM370.795 31.602C373.015 31.602 374.791 29.826 374.791 27.606C374.791 25.386 373.015 23.61 370.795 23.61C368.649 23.61 366.799 25.386 366.799 27.606C366.799 29.826 368.575 31.602 370.795 31.602ZM367.835 78H373.829V39.298H367.835V78ZM412.085 72.746H388.775L412.455 44.108V39.298H384.113V44.404H405.647L381.967 72.968V78H412.085V72.746Z" fill="white"/>
<rect y="52" width="9" height="26" rx="4.5" fill="url(#paint0_linear)"/>
<rect x="15" y="31" width="9" height="47" rx="4.5" fill="url(#paint1_linear)"/>
<rect x="30" y="39" width="9" height="39" rx="4.5" fill="url(#paint2_linear)"/>
<rect x="45" y="25" width="9" height="53" rx="4.5" fill="url(#paint3_linear)"/>
<defs>
<linearGradient id="paint0_linear" x1="4.5" y1="52" x2="4.5" y2="78" gradientUnits="userSpaceOnUse">
<stop stop-color="#997AFC"/>
<stop offset="1" stop-color="#7F4AFA"/>
</linearGradient>
<linearGradient id="paint1_linear" x1="19.5" y1="31" x2="19.5" y2="78" gradientUnits="userSpaceOnUse">
<stop stop-color="#4B92E5"/>
<stop offset="1" stop-color="#3672BB"/>
</linearGradient>
<linearGradient id="paint2_linear" x1="34.5" y1="39" x2="34.5" y2="78" gradientUnits="userSpaceOnUse">
<stop stop-color="#DA62C4"/>
<stop offset="1" stop-color="#B1489E"/>
</linearGradient>
<linearGradient id="paint3_linear" x1="49.5" y1="25" x2="49.5" y2="78" gradientUnits="userSpaceOnUse">
<stop stop-color="#4C9AAF"/>
<stop offset="1" stop-color="#33798C"/>
</linearGradient>
</defs>
</svg>
